**harm	**harte	**silbe	**rhyme	**timestamp	**phrase	**leadinstrument	**kern
*M4/4	*M4/4	*	*	*	*	*	*
*	*	*	*	*	*	*	*
*	*	*	*	*	*	*	*
*D:	*D:	*	*	*	*	*	*D:
1r;	N	.	.	0	.	r	1r;
=1	=1	=1	=1	=1	=1	=1	=1
*>Letter>A	*>Letter>A	*>Letter>A	*>Letter>A	*>Letter>A	*>Letter>A	*>Letter>A	*>Letter>A
*>Label>Intro	*>Label>Intro	*>Label>Intro	*>Label>Intro	*>Label>Intro	*>Label>Intro	*>Label>Intro	*>Label>Intro
*	*	*	*	*	*	*	*
*	*	*	*	*	*	*	*
1I	D:maj	.	.	0.395	newline	guitar	1D 1f# 1a
=2	=2	=2	=2	=2	=2	=2	=2
1I	D:maj	.	.	1.887	.	guitar	1D 1f# 1a
=3	=3	=3	=3	=3	=3	=3	=3
1I	D:maj	.	.	3.379	.	guitar	1D 1f# 1a
=4	=4	=4	=4	=4	=4	=4	=4
1I	D:maj	.	.	4.871	.	guitar	1D 1f# 1a
=5	=5	=5	=5	=5	=5	=5	=5
1VI	B:maj	.	.	6.363	newline	guitar	1B 1dd# 1ff#
=6	=6	=6	=6	=6	=6	=6	=6
1VI	B:maj	.	.	7.849	.	guitar	1B 1dd# 1ff#
=7	=7	=7	=7	=7	=7	=7	=7
1VI	B:maj	.	.	9.335	.	guitar	1B 1dd# 1ff#
=8	=8	=8	=8	=8	=8	=8	=8
1VI	B:maj	.	.	10.822	.	guitar	1B 1dd# 1ff#
=9	=9	=9	=9	=9	=9	=9	=9
1I	D:maj	.	.	12.308	newline	guitar	1D 1f# 1a
=10	=10	=10	=10	=10	=10	=10	=10
1I	D:maj	.	.	13.766	.	guitar	1D 1f# 1a
=11	=11	=11	=11	=11	=11	=11	=11
1I	D:maj	.	.	15.224	.	guitar	1D 1f# 1a
=12	=12	=12	=12	=12	=12	=12	=12
1I	D:maj	.	.	16.683	.	guitar	1D 1f# 1a
=13	=13	=13	=13	=13	=13	=13	=13
1VI	B:maj	.	.	18.141	newline	guitar	1B 1dd# 1ff#
=14	=14	=14	=14	=14	=14	=14	=14
1VI	B:maj	.	.	19.6	.	guitar	1B 1dd# 1ff#
=15	=15	=15	=15	=15	=15	=15	=15
1VI	B:maj	.	.	21.058	.	guitar	1B 1dd# 1ff#
=16	=16	=16	=16	=16	=16	=16	=16
1VI	B:maj	.	.	22.516	.	guitar	1B 1dd# 1ff#
=17	=17	=17	=17	=17	=17	=17	=17
*>Letter>A	*>Letter>A	*>Letter>A	*>Letter>A	*>Letter>A	*>Letter>A	*>Letter>A	*>Letter>A
*>Label>Verse	*>Label>Verse	*>Label>Verse	*>Label>Verse	*>Label>Verse	*>Label>Verse	*>Label>Verse	*>Label>Verse
1I	D:maj	One	.	23.974	newline	voice	1D 1f# 1a
.	.	way	.	.	.	.	.
.	.	.	.	.	.	.	.
.	.	or	.	.	.	.	.
.	.	a-	.	.	.	.	.
=18	=18	=18	=18	=18	=18	=18	=18
1I	D:maj	-not-	.	25.437	.	voice	1D 1f# 1a
.	.	-her:	.	.	.	.	.
.	.	.	.	.	.	.	.
.	.	I'm	.	.	.	.	.
.	.	gon-	.	.	.	.	.
.	.	-na	.	.	.	.	.
=19	=19	=19	=19	=19	=19	=19	=19
1I	D:maj	find	.	26.9	.	voice	1D 1f# 1a
.	.	ya.	.	.	.	.	.
.	.	.	.	.	.	.	.
.	.	I'm	.	.	.	.	.
.	.	gon-	.	.	.	.	.
.	.	-na	.	.	.	.	.
=20	=20	=20	=20	=20	=20	=20	=20
1I	D:maj	get-	.	28.363	.	voice	1D 1f# 1a
.	.	-cha	.	.	.	.	.
.	.	get-	.	.	.	.	.
.	.	-cha	.	.	.	.	.
.	.	get-	.	.	.	.	.
.	.	-cha	.	.	.	.	.
.	.	get-	.	.	.	.	.
.	.	-cha.	.	.	.	.	.
=21	=21	=21	=21	=21	=21	=21	=21
1VI	B:maj	One	.	29.825	newline	voice	1B 1dd# 1ff#
.	.	way	.	.	.	.	.
.	.	.	.	.	.	.	.
.	.	or	.	.	.	.	.
.	.	a-	.	.	.	.	.
=22	=22	=22	=22	=22	=22	=22	=22
1VI	B:maj	-not-	.	31.322	.	voice	1B 1dd# 1ff#
.	.	-her:	.	.	.	.	.
.	.	.	.	.	.	.	.
.	.	I'm	.	.	.	.	.
.	.	gon-	.	.	.	.	.
.	.	-na	.	.	.	.	.
=23	=23	=23	=23	=23	=23	=23	=23
1VI	B:maj	win	.	32.819	.	voice	1B 1dd# 1ff#
.	.	ya.	.	.	.	.	.
.	.	.	.	.	.	.	.
.	.	I'm	.	.	.	.	.
.	.	gon-	.	.	.	.	.
.	.	-na	.	.	.	.	.
=24	=24	=24	=24	=24	=24	=24	=24
1VI	B:maj	get-	.	34.315	.	voice	1B 1dd# 1ff#
.	.	-cha	.	.	.	.	.
.	.	get-	.	.	.	.	.
.	.	-cha	.	.	.	.	.
.	.	get-	.	.	.	.	.
.	.	-cha	.	.	.	.	.
.	.	get-	.	.	.	.	.
.	.	-cha.	.	.	.	.	.
=25	=25	=25	=25	=25	=25	=25	=25
1I	D:maj	One	.	35.812	newline	voice	1D 1f# 1a
.	.	way	.	.	.	.	.
.	.	.	.	.	.	.	.
.	.	or	.	.	.	.	.
.	.	a-	.	.	.	.	.
=26	=26	=26	=26	=26	=26	=26	=26
1I	D:maj	-no-	.	37.269	.	voice	1D 1f# 1a
.	.	-ther:	.	.	.	.	.
.	.	.	.	.	.	.	.
.	.	I'm	.	.	.	.	.
.	.	gon-	.	.	.	.	.
.	.	-na	.	.	.	.	.
=27	=27	=27	=27	=27	=27	=27	=27
1I	D:maj	see	.	38.726	.	voice	1D 1f# 1a
.	.	ya.	.	.	.	.	.
.	.	.	.	.	.	.	.
.	.	I'm	.	.	.	.	.
.	.	gon-	.	.	.	.	.
.	.	-na	.	.	.	.	.
=28	=28	=28	=28	=28	=28	=28	=28
1I	D:maj	meet-	.	40.183	.	voice	1D 1f# 1a
.	.	-cha	.	.	.	.	.
.	.	meet-	.	.	.	.	.
.	.	-cha	.	.	.	.	.
.	.	meet-	.	.	.	.	.
.	.	-cha	.	.	.	.	.
.	.	meet-	.	.	.	.	.
.	.	-cha.	.	.	.	.	.
=29	=29	=29	=29	=29	=29	=29	=29
1VI	B:maj	One	.	41.639	newline	voice	1B 1dd# 1ff#
.	.	day,	.	.	.	.	.
.	.	.	.	.	.	.	.
.	.	may-	.	.	.	.	.
.	.	-be	.	.	.	.	.
=30	=30	=30	=30	=30	=30	=30	=30
1VI	B:maj	next	.	43.15	.	voice	1B 1dd# 1ff#
.	.	week:	.	.	.	.	.
.	.	.	.	.	.	.	.
.	.	I'm	.	.	.	.	.
.	.	gon-	.	.	.	.	.
.	.	-na	.	.	.	.	.
=31	=31	=31	=31	=31	=31	=31	=31
1VI	B:maj	meet	.	44.662	.	voice	1B 1dd# 1ff#
.	.	ya.	.	.	.	.	.
.	.	.	.	.	.	.	.
.	.	I'm	.	.	.	.	.
.	.	gon-	.	.	.	.	.
.	.	-na	.	.	.	.	.
=32	=32	=32	=32	=32	=32	=32	=32
1VI	B:maj	meet	.	46.173	.	voice	1B 1dd# 1ff#
.	.	ya.	.	.	.	.	.
.	.	.	.	.	.	.	.
.	.	I'll	.	.	.	.	.
.	.	meet	.	.	.	.	.
.	.	ya.	.	.	.	.	.
.	.	.	.	.	.	.	.
=33	=33	=33	=33	=33	=33	=33	=33
*>Letter>B	*>Letter>B	*>Letter>B	*>Letter>B	*>Letter>B	*>Letter>B	*>Letter>B	*>Letter>B
*>Label>Chorus	*>Label>Chorus	*>Label>Chorus	*>Label>Chorus	*>Label>Chorus	*>Label>Chorus	*>Label>Chorus	*>Label>Chorus
1IV	G:maj	I	.	47.684	newline	voice	1G 1b 1dd
=34	=34	=34	=34	=34	=34	=34	=34
1vi	B:min	will	.	49.196	.	voice	1B 1dd 1ff#
=35	=35	=35	=35	=35	=35	=35	=35
1V	A:maj	drive	.	50.709	.	voice	1A 1cc# 1ee
.	.	past	.	.	.	.	.
.	.	your	.	.	.	.	.
=36	=36	=36	=36	=36	=36	=36	=36
1iii	F#:min	house;	A	52.222	.	voice	1F# 1a 1cc#
.	.	.	.	.	.	.	.
=37	=37	=37	=37	=37	=37	=37	=37
1IV	G:maj	And	.	53.734	newline	voice	1G 1b 1dd
=38	=38	=38	=38	=38	=38	=38	=38
1vi	B:min	if	.	55.24	.	voice	1B 1dd 1ff#
.	.	.	.	.	.	.	.
.	.	the	.	.	.	.	.
=39	=39	=39	=39	=39	=39	=39	=39
1V	A:maj	lights	.	56.747	.	voice	1A 1cc# 1ee
.	.	are	.	.	.	.	.
.	.	all	.	.	.	.	.
=40	=40	=40	=40	=40	=40	=40	=40
1iii	F#:min	down:	A	58.253	.	voice	1F# 1a 1cc#
.	.	.	.	.	.	.	.
.	.	I'll	.	.	.	.	.
=41	=41	=41	=41	=41	=41	=41	=41
2IV	G:maj	see	.	59.759	newline	voice	2.G 2.b 2.dd
.	.	who's	.	.	.	.	.
4V	A:maj	.	.	60.505	.	voice	4A 4cc# 4ee
4vi	B:min	a-	.	60.879	.	voice	4B 4dd 4ff#
=42	=42	=42	=42	=42	=42	=42	=42
1ii	E:min	-round.	A	61.252	.	voice	1E 1g 1b
=43	=43	=43	=43	=43	=43	=43	=43
1III	F#:maj	_	.	62.745	.	voice	1F# 1a# 1cc#
=44	=44	=44	=44	=44	=44	=44	=44
1III	F#:maj	.	.	64.238	.	voice	1F# 1a# 1cc#
=45	=45	=45	=45	=45	=45	=45	=45
*>Letter>A	*>Letter>A	*>Letter>A	*>Letter>A	*>Letter>A	*>Letter>A	*>Letter>A	*>Letter>A
*>Label>Verse	*>Label>Verse	*>Label>Verse	*>Label>Verse	*>Label>Verse	*>Label>Verse	*>Label>Verse	*>Label>Verse
1I	D:maj	One	.	65.731	newline	voice	1D 1f# 1a
.	.	way	.	.	.	.	.
.	.	.	.	.	.	.	.
.	.	or	.	.	.	.	.
.	.	a-	.	.	.	.	.
=46	=46	=46	=46	=46	=46	=46	=46
1I	D:maj	-not-	.	67.226	.	voice	1D 1f# 1a
.	.	-her:	.	.	.	.	.
.	.	.	.	.	.	.	.
.	.	I'm	.	.	.	.	.
.	.	gon-	.	.	.	.	.
.	.	-na	.	.	.	.	.
=47	=47	=47	=47	=47	=47	=47	=47
1I	D:maj	find	.	68.722	.	voice	1D 1f# 1a
.	.	ya.	.	.	.	.	.
.	.	.	.	.	.	.	.
.	.	I'm	.	.	.	.	.
.	.	gon-	.	.	.	.	.
.	.	-na	.	.	.	.	.
=48	=48	=48	=48	=48	=48	=48	=48
1I	D:maj	get-	.	70.217	.	voice	1D 1f# 1a
.	.	-cha	.	.	.	.	.
.	.	get-	.	.	.	.	.
.	.	-cha	.	.	.	.	.
.	.	get-	.	.	.	.	.
.	.	-cha	.	.	.	.	.
.	.	get-	.	.	.	.	.
.	.	-cha.	.	.	.	.	.
=49	=49	=49	=49	=49	=49	=49	=49
1VI	B:maj	One	.	71.713	newline	voice	1B 1dd# 1ff#
.	.	way	.	.	.	.	.
.	.	.	.	.	.	.	.
.	.	or	.	.	.	.	.
.	.	a-	.	.	.	.	.
=50	=50	=50	=50	=50	=50	=50	=50
1VI	B:maj	-not-	.	73.202	.	voice	1B 1dd# 1ff#
.	.	-her:	.	.	.	.	.
.	.	.	.	.	.	.	.
.	.	I'm	.	.	.	.	.
.	.	gon-	.	.	.	.	.
.	.	-na	.	.	.	.	.
=51	=51	=51	=51	=51	=51	=51	=51
1VI	B:maj	win	.	74.691	.	voice	1B 1dd# 1ff#
.	.	ya.	.	.	.	.	.
.	.	.	.	.	.	.	.
.	.	.	.	.	.	.	.
.	.	I'll	.	.	.	.	.
=52	=52	=52	=52	=52	=52	=52	=52
1VI	B:maj	get-	.	76.181	.	voice	1B 1dd# 1ff#
.	.	-cha.	.	.	.	.	.
.	.	.	.	.	.	.	.
.	.	I'll	.	.	.	.	.
.	.	get-	.	.	.	.	.
.	.	-cha.	.	.	.	.	.
.	.	.	.	.	.	.	.
=53	=53	=53	=53	=53	=53	=53	=53
1I	D:maj	One	.	77.67	newline	voice	1D 1f# 1a
.	.	way	.	.	.	.	.
.	.	.	.	.	.	.	.
.	.	or	.	.	.	.	.
.	.	a-	.	.	.	.	.
=54	=54	=54	=54	=54	=54	=54	=54
1I	D:maj	-noth-	.	79.158	.	voice	1D 1f# 1a
.	.	-er	.	.	.	.	.
.	.	.	.	.	.	.	.
.	.	I'm	.	.	.	.	.
.	.	gon-	.	.	.	.	.
.	.	-na	.	.	.	.	.
=55	=55	=55	=55	=55	=55	=55	=55
1I	D:maj	see	.	80.647	.	voice	1D 1f# 1a
.	.	ya.	.	.	.	.	.
.	.	.	.	.	.	.	.
.	.	I'm	.	.	.	.	.
.	.	gon-	.	.	.	.	.
.	.	-na	.	.	.	.	.
=56	=56	=56	=56	=56	=56	=56	=56
1I	D:maj	meet-	.	82.135	.	voice	1D 1f# 1a
.	.	-cha	.	.	.	.	.
.	.	meet-	.	.	.	.	.
.	.	-cha	.	.	.	.	.
.	.	meet-	.	.	.	.	.
.	.	-cha	.	.	.	.	.
.	.	meet-	.	.	.	.	.
.	.	-cha.	.	.	.	.	.
=57	=57	=57	=57	=57	=57	=57	=57
1VI	B:maj	One	.	83.624	newline	voice	1B 1dd# 1ff#
.	.	day,	.	.	.	.	.
.	.	.	.	.	.	.	.
.	.	may-	.	.	.	.	.
.	.	-be	.	.	.	.	.
=58	=58	=58	=58	=58	=58	=58	=58
1VI	B:maj	next	.	85.117	.	voice	1B 1dd# 1ff#
.	.	week:	.	.	.	.	.
.	.	.	.	.	.	.	.
.	.	.	.	.	.	.	.
.	.	I'm	.	.	.	.	.
.	.	gon-	.	.	.	.	.
.	.	-na	.	.	.	.	.
=59	=59	=59	=59	=59	=59	=59	=59
1VI	B:maj	meet	.	86.611	.	voice	1B 1dd# 1ff#
.	.	ya.	.	.	.	.	.
.	.	.	.	.	.	.	.
.	.	.	.	.	.	.	.
.	.	I'll	.	.	.	.	.
=60	=60	=60	=60	=60	=60	=60	=60
1VI	B:maj	meet	.	88.104	.	voice	1B 1dd# 1ff#
.	.	ya	.	.	.	.	.
.	.	.	.	.	.	.	.
.	.	aaa;	.	.	.	.	.
.	.	_	.	.	.	.	.
=61	=61	=61	=61	=61	=61	=61	=61
*>Letter>B	*>Letter>B	*>Letter>B	*>Letter>B	*>Letter>B	*>Letter>B	*>Letter>B	*>Letter>B
*>Label>Chorus	*>Label>Chorus	*>Label>Chorus	*>Label>Chorus	*>Label>Chorus	*>Label>Chorus	*>Label>Chorus	*>Label>Chorus
1IV	G:maj	And	.	89.597	newline	voice	1G 1b 1dd
=62	=62	=62	=62	=62	=62	=62	=62
1vi	B:min	if	.	91.1	.	voice	1B 1dd 1ff#
.	.	.	.	.	.	.	.
.	.	the	.	.	.	.	.
=63	=63	=63	=63	=63	=63	=63	=63
1V	A:maj	lights	.	92.602	.	voice	1A 1cc# 1ee
.	.	are	.	.	.	.	.
.	.	all	.	.	.	.	.
=64	=64	=64	=64	=64	=64	=64	=64
1iii	F#:min	out:	A	94.104	.	voice	1F# 1a 1cc#
.	.	.	.	.	.	.	.
=65	=65	=65	=65	=65	=65	=65	=65
1IV	G:maj	I'll	.	95.606	newline	voice	1G 1b 1dd
=66	=66	=66	=66	=66	=66	=66	=66
1vi	B:min	fo-	.	97.11	.	voice	1B 1dd 1ff#
.	.	-llow	.	.	.	.	.
.	.	.	.	.	.	.	.
=67	=67	=67	=67	=67	=67	=67	=67
1V	A:maj	your	.	98.614	.	voice	1A 1cc# 1ee
.	.	bus	.	.	.	.	.
.	.	down-	A	.	.	.	.
=68	=68	=68	=68	=68	=68	=68	=68
1iii	F#:min	_	.	100.117	.	voice	1F# 1a 1cc#
.	.	-town,	A	.	.	.	.
.	.	_	.	.	.	.	.
.	.	.	.	.	.	.	.
.	.	See	.	.	.	.	.
=69	=69	=69	=69	=69	=69	=69	=69
2IV	G:maj	who's	.	101.621	newline	voice	2.G 2.b 2.dd
.	.	han-	.	.	.	.	.
4V	A:maj	.	.	102.354	.	voice	4A 4cc# 4ee
4vi	B:min	-ging	.	102.721	.	voice	4B 4dd 4ff#
=70	=70	=70	=70	=70	=70	=70	=70
1ii	E:min	out	A	103.088	.	voice	1E 1g 1b
=71	=71	=71	=71	=71	=71	=71	=71
1III	F#:maj	_	.	104.554	.	voice	1F# 1a# 1cc#
=72	=72	=72	=72	=72	=72	=72	=72
1III	F#:maj	.	.	106.021	.	voice	1F# 1a# 1cc#
=73	=73	=73	=73	=73	=73	=73	=73
1III	F#:maj	.	.	107.488	newline	drums	1F# 1a# 1cc#
=74	=74	=74	=74	=74	=74	=74	=74
1III	F#:maj	.	.	108.896	.	drums	1F# 1a# 1cc#
=75	=75	=75	=75	=75	=75	=75	=75
*>Letter>C	*>Letter>C	*>Letter>C	*>Letter>C	*>Letter>C	*>Letter>C	*>Letter>C	*>Letter>C
*>Label>Solo	*>Label>Solo	*>Label>Solo	*>Label>Solo	*>Label>Solo	*>Label>Solo	*>Label>Solo	*>Label>Solo
1III	F#:maj	.	.	110.304	newline	guitar	1F# 1a# 1cc#
=76	=76	=76	=76	=76	=76	=76	=76
1III	F#:maj	.	.	111.763	.	guitar	1F# 1a# 1cc#
=77	=77	=77	=77	=77	=77	=77	=77
1V	A:maj	.	.	113.222	.	guitar	1A 1cc# 1ee
=78	=78	=78	=78	=78	=78	=78	=78
1vii	C#:min	.	.	114.681	.	guitar	1C# 1e 1g#
=79	=79	=79	=79	=79	=79	=79	=79
1III	F#:maj	.	.	116.14	newline	guitar	1F# 1a# 1cc#
=80	=80	=80	=80	=80	=80	=80	=80
1III	F#:maj	.	.	117.578	.	guitar	1F# 1a# 1cc#
=81	=81	=81	=81	=81	=81	=81	=81
1V	A:maj	.	.	119.016	.	guitar	1A 1cc# 1ee
=82	=82	=82	=82	=82	=82	=82	=82
1vii	C#:min	.	.	120.454	.	guitar	1C# 1e 1g#
=83	=83	=83	=83	=83	=83	=83	=83
1VI	B:maj	.	.	121.892	newline	guitar	1B 1dd# 1ff#
=84	=84	=84	=84	=84	=84	=84	=84
1II	E:maj	.	.	123.381	.	guitar	1E 1g# 1b
=85	=85	=85	=85	=85	=85	=85	=85
1III	F#:maj	.	.	124.871	.	guitar	1F# 1a# 1cc#
=86	=86	=86	=86	=86	=86	=86	=86
1III	F#:maj	.	.	126.361	.	guitar	1F# 1a# 1cc#
=87	=87	=87	=87	=87	=87	=87	=87
1V	A:maj	.	.	127.851	newline	guitar	1A 1cc# 1ee
=88	=88	=88	=88	=88	=88	=88	=88
1V	A:maj	.	.	129.316	.	guitar	1A 1cc# 1ee
=89	=89	=89	=89	=89	=89	=89	=89
1VI	B:maj	.	.	130.78	.	guitar	1B 1dd# 1ff#
=90	=90	=90	=90	=90	=90	=90	=90
1VI	B:maj	.	.	132.245	.	guitar	1B 1dd# 1ff#
=91	=91	=91	=91	=91	=91	=91	=91
*>Letter>A	*>Letter>A	*>Letter>A	*>Letter>A	*>Letter>A	*>Letter>A	*>Letter>A	*>Letter>A
*>Label>Verse	*>Label>Verse	*>Label>Verse	*>Label>Verse	*>Label>Verse	*>Label>Verse	*>Label>Verse	*>Label>Verse
1I	D:maj	One	.	133.71	newline	voice	1D 1f# 1a
.	.	way	.	.	.	.	.
.	.	or	.	.	.	.	.
.	.	a-	.	.	.	.	.
=92	=92	=92	=92	=92	=92	=92	=92
1I	D:maj	-not-	.	135.205	.	voice	1D 1f# 1a
.	.	-her:	.	.	.	.	.
.	.	.	.	.	.	.	.
.	.	I'm	.	.	.	.	.
.	.	gon-	.	.	.	.	.
.	.	-na	.	.	.	.	.
=93	=93	=93	=93	=93	=93	=93	=93
1I	D:maj	lo-	.	136.699	.	voice	1D 1f# 1a
.	.	-se.	.	.	.	.	.
.	.	.	.	.	.	.	.
.	.	I'm	.	.	.	.	.
.	.	gon-	.	.	.	.	.
.	.	-na	.	.	.	.	.
=94	=94	=94	=94	=94	=94	=94	=94
1I	D:maj	give	.	138.193	.	voice	1D 1f# 1a
.	.	you	.	.	.	.	.
.	.	the	.	.	.	.	.
.	.	slip.	B	.	.	.	.
.	.	.	.	.	.	.	.
=95	=95	=95	=95	=95	=95	=95	=95
1VI	B:maj	Slip	B	139.688	newline	voice	1B 1dd# 1ff#
.	.	of	.	.	.	.	.
.	.	the	.	.	.	.	.
.	.	lip	B	.	.	.	.
.	.	_	.	.	.	.	.
.	.	or	.	.	.	.	.
.	.	a-	.	.	.	.	.
=96	=96	=96	=96	=96	=96	=96	=96
1VI	B:maj	-not-	.	141.171	.	voice	1B 1dd# 1ff#
.	.	-her;	.	.	.	.	.
.	.	.	.	.	.	.	.
.	.	I'm	.	.	.	.	.
.	.	gon-	.	.	.	.	.
.	.	-na	.	.	.	.	.
=97	=97	=97	=97	=97	=97	=97	=97
1VI	B:maj	lose	.	142.655	.	voice	1B 1dd# 1ff#
.	.	ya.	.	.	.	.	.
.	.	.	.	.	.	.	.
.	.	.	.	.	.	.	.
.	.	I'll	.	.	.	.	.
=98	=98	=98	=98	=98	=98	=98	=98
1VI	B:maj	trick	.	144.138	.	voice	1B 1dd# 1ff#
.	.	ya.	.	.	.	.	.
.	.	.	.	.	.	.	.
.	.	I'll	.	.	.	.	.
.	.	trick	.	.	.	.	.
.	.	ya.	.	.	.	.	.
.	.	.	.	.	.	.	.
=99	=99	=99	=99	=99	=99	=99	=99
1I	D:maj	One	.	145.621	newline	voice	1D 1f# 1a
.	.	way	.	.	.	.	.
.	.	.	.	.	.	.	.
.	.	or	.	.	.	.	.
.	.	a-	.	.	.	.	.
=100	=100	=100	=100	=100	=100	=100	=100
1I	D:maj	-not-	.	147.1	.	voice	1D 1f# 1a
.	.	-her:	.	.	.	.	.
.	.	.	.	.	.	.	.
.	.	I'm	.	.	.	.	.
.	.	gon-	.	.	.	.	.
.	.	-na	.	.	.	.	.
=101	=101	=101	=101	=101	=101	=101	=101
1I	D:maj	lose	.	148.579	.	voice	1D 1f# 1a
.	.	ya.	.	.	.	.	.
.	.	.	.	.	.	.	.
.	.	I'm	.	.	.	.	.
.	.	gon-	.	.	.	.	.
.	.	-na	.	.	.	.	.
=102	=102	=102	=102	=102	=102	=102	=102
1I	D:maj	trick	.	150.058	.	voice	1D 1f# 1a
.	.	ya	.	.	.	.	.
.	.	trick	.	.	.	.	.
.	.	ya	.	.	.	.	.
.	.	trick	.	.	.	.	.
.	.	ya	.	.	.	.	.
.	.	trick	.	.	.	.	.
.	.	ya.	.	.	.	.	.
=103	=103	=103	=103	=103	=103	=103	=103
1VI	B:maj	One	.	151.537	newline	voice	1B 1dd# 1ff#
.	.	way	.	.	.	.	.
.	.	.	.	.	.	.	.
.	.	or	.	.	.	.	.
.	.	a-	.	.	.	.	.
=104	=104	=104	=104	=104	=104	=104	=104
1VI	B:maj	-noth-	.	153.014	.	voice	1B 1dd# 1ff#
.	.	-er:	.	.	.	.	.
.	.	.	.	.	.	.	.
.	.	I'm	.	.	.	.	.
.	.	gon-	.	.	.	.	.
.	.	-na	.	.	.	.	.
=105	=105	=105	=105	=105	=105	=105	=105
1VI	B:maj	lose	.	154.492	.	voice	1B 1dd# 1ff#
.	.	ya.	.	.	.	.	.
.	.	.	.	.	.	.	.
.	.	I'm	.	.	.	.	.
.	.	gon-	.	.	.	.	.
.	.	-na	.	.	.	.	.
=106	=106	=106	=106	=106	=106	=106	=106
1VI	B:maj	give	.	155.97	.	voice	1B 1dd# 1ff#
.	.	you	.	.	.	.	.
.	.	the	.	.	.	.	.
.	.	slip.	.	.	.	.	.
.	.	.	.	.	.	.	.
=107	=107	=107	=107	=107	=107	=107	=107
*>Letter>A2	*>Letter>A2	*>Letter>A2	*>Letter>A2	*>Letter>A2	*>Letter>A2	*>Letter>A2	*>Letter>A2
*>Label>Outro	*>Label>Outro	*>Label>Outro	*>Label>Outro	*>Label>Outro	*>Label>Outro	*>Label>Outro	*>Label>Outro
1I	D:maj	.	.	157.448	newline	synthesizer	1D 1f# 1a
=108	=108	=108	=108	=108	=108	=108	=108
1I	D:maj	.	.	158.918	.	synthesizer	1D 1f# 1a
=109	=109	=109	=109	=109	=109	=109	=109
1VI	B:maj	.	.	160.388	.	synthesizer	1B 1dd# 1ff#
=110	=110	=110	=110	=110	=110	=110	=110
1VI	B:maj	.	.	161.858	.	synthesizer	1B 1dd# 1ff#
=111	=111	=111	=111	=111	=111	=111	=111
1I	D:maj	I'll	.	163.328	newline	voice	1D 1f# 1a
.	.	walk	.	.	.	.	.
.	.	down	.	.	.	.	.
.	.	the	.	.	.	.	.
.	.	mall,	C	.	.	.	.
=112	=112	=112	=112	=112	=112	=112	=112
1I	D:maj	Stand	.	164.814	.	voice	1D 1f# 1a
.	.	o-	.	.	.	.	.
.	.	-ver	.	.	.	.	.
.	.	by	.	.	.	.	.
.	.	the	.	.	.	.	.
.	.	wall	C	.	.	.	.
=113	=113	=113	=113	=113	=113	=113	=113
1VI	B:maj	where	.	166.299	.	voice	1B 1dd# 1ff#
.	.	I	.	.	.	.	.
.	.	can	.	.	.	.	.
.	.	see	.	.	.	.	.
.	.	it	.	.	.	.	.
.	.	all,	C	.	.	.	.
=114	=114	=114	=114	=114	=114	=114	=114
1VI	B:maj	Find	.	167.784	.	voice	1B 1dd# 1ff#
.	.	out	.	.	.	.	.
.	.	who	.	.	.	.	.
.	.	ya	.	.	.	.	.
.	.	call,	C	.	.	.	.
=115	=115	=115	=115	=115	=115	=115	=115
1I	D:maj	Lead	.	169.27	newline	voice	1D 1f# 1a
.	.	you	.	.	.	.	.
.	.	to	.	.	.	.	.
.	.	the	.	.	.	.	.
.	.	su-	.	.	.	.	.
=116	=116	=116	=116	=116	=116	=116	=116
1I	D:maj	.	.	170.747	.	voice	1D 1f# 1a
.	.	-per-	.	.	.	.	.
.	.	-mar-	.	.	.	.	.
.	.	-ket	.	.	.	.	.
.	.	check-	.	.	.	.	.
.	.	-out.	A	.	.	.	.
.	.	.	.	.	.	.	.
.	.	Some	.	.	.	.	.
=117	=117	=117	=117	=117	=117	=117	=117
1VI	B:maj	spe-	.	172.223	.	voice	1B 1dd# 1ff#
.	.	-cials	.	.	.	.	.
.	.	and	.	.	.	.	.
.	.	rat	.	.	.	.	.
.	.	food.	.	.	.	.	.
=118	=118	=118	=118	=118	=118	=118	=118
1VI	B:maj	get	.	173.7	.	voice	1B 1dd# 1ff#
.	.	lost	.	.	.	.	.
.	.	in	.	.	.	.	.
.	.	the	.	.	.	.	.
.	.	crowd.	A	.	.	.	.
=119	=119	=119	=119	=119	=119	=119	=119
1I	D:maj	One	.	175.177	newline	voice	1D 1f# 1a
.	.	way	.	.	.	.	.
.	.	or	.	.	.	.	.
.	.	a-	.	.	.	.	.
=120	=120	=120	=120	=120	=120	=120	=120
1I	D:maj	-not-	.	176.669	.	voice	1D 1f# 1a
.	.	-her:	.	.	.	.	.
.	.	.	.	.	.	.	.
.	.	I'm	.	.	.	.	.
.	.	gon-	.	.	.	.	.
.	.	-na	.	.	.	.	.
=121	=121	=121	=121	=121	=121	=121	=121
1VI	B:maj	get-	.	178.161	.	voice	1B 1dd# 1ff#
.	.	-cha.	.	.	.	.	.
.	.	.	.	.	.	.	.
.	.	I'll	.	.	.	.	.
.	.	get-	.	.	.	.	.
.	.	-cha.	.	.	.	.	.
.	.	.	.	.	.	.	.
.	.	I'll	.	.	.	.	.
=122	=122	=122	=122	=122	=122	=122	=122
1VI	B:maj	get-	.	179.653	.	voice	1B 1dd# 1ff#
.	.	-cha	.	.	.	.	.
.	.	get-	.	.	.	.	.
.	.	-cha	.	.	.	.	.
.	.	get-	.	.	.	.	.
.	.	-cha	.	.	.	.	.
.	.	get-	.	.	.	.	.
.	.	-cha.	.	.	.	.	.
=123	=123	=123	=123	=123	=123	=123	=123
1I	D:maj	One	.	181.146	newline	voice	1D 1f# 1a
.	.	way	.	.	.	.	.
.	.	or	.	.	.	.	.
.	.	a-	.	.	.	.	.
=124	=124	=124	=124	=124	=124	=124	=124
1I	D:maj	-not-	.	182.617	.	voice	1D 1f# 1a
.	.	-her:	.	.	.	.	.
.	.	.	.	.	.	.	.
.	.	I'm	.	.	.	.	.
.	.	gon-	.	.	.	.	.
.	.	-na	.	.	.	.	.
=125	=125	=125	=125	=125	=125	=125	=125
1VI	B:maj	get-	.	184.088	.	voice	1B 1dd# 1ff#
.	.	-cha.	.	.	.	.	.
.	.	.	.	.	.	.	.
.	.	I'll	.	.	.	.	.
.	.	get-	.	.	.	.	.
.	.	-cha.	.	.	.	.	.
.	.	.	.	.	.	.	.
.	.	I'll	.	.	.	.	.
=126	=126	=126	=126	=126	=126	=126	=126
1VI	B:maj	get-	.	185.56	.	voice	1B 1dd# 1ff#
.	.	-cha	.	.	.	.	.
.	.	get-	.	.	.	.	.
.	.	-cha	.	.	.	.	.
.	.	get-	.	.	.	.	.
.	.	-cha	.	.	.	.	.
.	.	get-	.	.	.	.	.
.	.	-cha.	.	.	.	.	.
=127	=127	=127	=127	=127	=127	=127	=127
1I	D:maj	One	.	187.031	newline	voice	1D 1f# 1a
.	.	way	.	.	.	.	.
.	.	or	.	.	.	.	.
.	.	a-	.	.	.	.	.
=128	=128	=128	=128	=128	=128	=128	=128
1I	D:maj	-not-	.	188.487	.	voice	1D 1f# 1a
.	.	-her.	.	.	.	.	.
.	.	.	.	.	.	.	.
.	.	I'm	.	.	.	.	.
.	.	gon-	.	.	.	.	.
.	.	-na	.	.	.	.	.
=129	=129	=129	=129	=129	=129	=129	=129
1VI	B:maj	get-	.	189.943	.	voice	1B 1dd# 1ff#
.	.	-cha.	.	.	.	.	.
.	.	.	.	.	.	.	.
.	.	I'll	.	.	.	.	.
.	.	get-	.	.	.	.	.
.	.	-cha.	.	.	.	.	.
.	.	.	.	.	.	.	.
.	.	I'll	.	.	.	.	.
=130	=130	=130	=130	=130	=130	=130	=130
1VI	B:maj	get-	.	191.399	.	voice	1B 1dd# 1ff#
.	.	-cha	.	.	.	.	.
.	.	get-	.	.	.	.	.
.	.	-cha	.	.	.	.	.
.	.	get-	.	.	.	.	.
.	.	-cha	.	.	.	.	.
.	.	get-	.	.	.	.	.
.	.	-cha.	.	.	.	.	.
=131	=131	=131	=131	=131	=131	=131	=131
*>Label>>Fadeout	*>Label>>Fadeout	*>Label>>Fadeout	*>Label>>Fadeout	*>Label>>Fadeout	*>Label>>Fadeout	*>Label>>Fadeout	*>Label>>Fadeout
1I	D:maj	One	.	192.855	newline	voice	1D 1f# 1a
.	.	way	.	.	.	.	.
.	.	or	.	.	.	.	.
.	.	a-	.	.	.	.	.
=132	=132	=132	=132	=132	=132	=132	=132
1I	D:maj	-not-	.	194.305	.	voice	1D 1f# 1a
.	.	-her.	.	.	.	.	.
.	.	.	.	.	.	.	.
.	.	I'm	.	.	.	.	.
.	.	gon-	.	.	.	.	.
.	.	-na	.	.	.	.	.
=133	=133	=133	=133	=133	=133	=133	=133
1VI	B:maj	get-	.	195.756	.	voice	1B 1dd# 1ff#
.	.	-cha.	.	.	.	.	.
.	.	.	.	.	.	.	.
.	.	I'll	.	.	.	.	.
.	.	get-	.	.	.	.	.
.	.	-cha.	.	.	.	.	.
.	.	.	.	.	.	.	.
.	.	I'll	.	.	.	.	.
=134	=134	=134	=134	=134	=134	=134	=134
1VI	B:maj	get-	.	197.207	.	voice	1B 1dd# 1ff#
.	.	-cha	.	.	.	.	.
.	.	get-	.	.	.	.	.
.	.	-cha	.	.	.	.	.
.	.	get-	.	.	.	.	.
.	.	-cha	.	.	.	.	.
.	.	get-	.	.	.	.	.
.	.	-cha.	.	.	.	.	.
=135	=135	=135	=135	=135	=135	=135	=135
1I	D:maj	One	.	198.657	newline	voice	1D 1f# 1a
.	.	way	.	.	.	.	.
.	.	or	.	.	.	.	.
.	.	a-	.	.	.	.	.
=136	=136	=136	=136	=136	=136	=136	=136
1I	D:maj	-not-	.	199.951	.	voice	1D 1f# 1a
.	.	-her.	.	.	.	.	.
.	.	.	.	.	.	.	.
.	.	I'm	.	.	.	.	.
.	.	gon-	.	.	.	.	.
.	.	-na	.	.	.	.	.
=137	=137	=137	=137	=137	=137	=137	=137
1VI	B:maj	get-	.	201.244	.	voice	1B 1dd# 1ff#
.	.	-cha.	.	.	.	.	.
.	.	.	.	.	.	.	.
.	.	I'll	.	.	.	.	.
.	.	get-	.	.	.	.	.
.	.	-cha.	.	.	.	.	.
.	.	.	.	.	.	.	.
.	.	I'll	.	.	.	.	.
=138	=138	=138	=138	=138	=138	=138	=138
1VI	B:maj	get-	.	202.538	.	voice	1B 1dd# 1ff#
.	.	-cha	.	.	.	.	.
.	.	get-	.	.	.	.	.
.	.	-cha	.	.	.	.	.
.	.	get-	.	.	.	.	.
.	.	-cha	.	.	.	.	.
.	.	get-	.	.	.	.	.
.	.	-cha.	.	.	.	.	.
=139	=139	=139	=139	=139	=139	=139	=139
1I	D:maj	One	.	203.831	.	voice	1D 1f# 1a
.	.	way	.	.	.	.	.
.	.	or	.	.	.	.	.
.	.	a-	.	.	.	.	.
1r;	N	.	.	205.125	.	r	1r;
1r;	N	.	.	208.091	.	r	1r;
*-	*-	*-	*-	*-	*-	*-	*-
!!!BillboardChartDate: 1979/06/16
!!!BillboardPeak: 24
!!!BillboardWeeksOnChart: 14
!!!COC: Blondie
!!!ENC: Nathaniel Condit-Schultz
!!!EST: Awating manual error checking and editing.
!!!OTL: One Way Or Another
!!!RDF**harte: Chris Harte's syntax, used by MIREX
!!!RDF**harmony: **recip + pitch class of root + harmonic quality
!!!RDF**leadinstrument: original McGill primary instrumentation annotation
!!!RDF**phrase: newline = linebreak in original McGill transcription
!!!RDF**timestamp: McGill audio timestamp in seconds
!!!RDT: 2017/01/12/
!!!SampleActualRank: 47
!!!SampleID#: 0743
!!!SampleTargetRank: 48
!!!MBID: a8d7415e-c129-47d7-ba01-b4d253af8d6d
